shader_type spatial;

varying vec3 vertex_w;


void vertex() {
}

void fragment() {
}

//void light() {
//	// Called for every pixel for every light affecting the material.
//	// Uncomment to replace the default light processing function with this one.
//}
